X: 81
M: 6/8
L: 1/8
K: G
|:\
g>BB B>AG | (Ee)e (Ff)f | g>BB B>AG | e>ag f>ed |\
g>BB B>AG | (Ee)e (Ff)f | (g>b)b b>ag | f>ef g2z :|
b>gb a>fd | g>eg f>dB | c>de A>Bc | E>AG F>ED |
b>gb a>fd | g>eg f>dB | c>de A>Bc | E>AF G2z H|]

